icons/brunch.svg

<svg xmlns="http://www.w3.org/2000/svg" viewBox="0 0 256 500.742">
  <path fill="#86ad8a" d="M256 128 128.959 262.006 0 128 128 0l128 128"/>
  <path fill="#fff" d="M106.088 329.432c7.602-22.458 11.63-91.606 9.488-126.019-.256-4.128-.668-8.92-1.388-12.745a30.752 30.752 0 0 0-.785-3.314V52.856c0-11.473 10.52-16.895 20.402 8.285 9.883 25.179 7.013 114.74 7.013 121.108 0 1.351-1.226 2.948-3.15 4.515a26.4 26.4 0 0 0-2.109 1.513c-5.919 4.749-6.782 10.225-7.091 15.136-2.141 34.413-3.118 103.561 4.484 126.019 8.906 26.314-8.036 29.619-13.428 29.619-5.401-.002-22.342-3.307-13.436-29.619zM76.825 88.162c-.948.099-2.132 18.839-2.523 32.373-.478 16.444-1.218 31.07-5.836 31.07-3.468 0-5.619-5.726-5.051-20.257.817-20.926.792-43.186-.44-43.186-1.553 0-8.746 46.156-8.746 62.393 0 11.646 4.991 22.615 11.245 28.327l.066.054.558.495.02.017c4.519 4.12 5.657 8.595 5.962 12.683 2.581 34.403-2.263 119.635-11.394 142.092-10.697 26.305 9.654 29.619 16.139 29.619 6.475 0 26.827-3.314 16.128-29.619-9.131-22.459-13.967-107.689-11.394-142.092.307-4.088 1.442-8.563 5.962-12.683l.02-.017.558-.495.066-.054c6.253-5.71 11.567-16.685 11.246-28.327-1.274-46.191-6.548-62.393-8.101-62.393-1.232 0-1.23 24.656-.879 42.192.287 14.365-.945 20.837-4.997 20.837-3.859 0-5.025-13.991-5.515-30.841-.393-13.57-1.614-32.188-3.091-32.188zm102.46 265.26c-5.109 0-21.135-3.135-12.707-28.029 7.195-21.253 11.004-101.906 8.979-134.472-.103-1.658-.514-3.34-.829-5.118-.889-5.025-7.11-9.141-10.712-12.755-6.996-7.02-11.49-18.824-11.49-32.136 0-21.613 11.981-48.967 26.759-48.967 14.779 0 26.76 27.354 26.76 48.967 0 13.312-4.496 25.116-11.49 32.136-3.602 3.614-9.823 7.73-10.712 12.755-.315 1.778-.724 3.46-.829 5.118-2.027 32.564 1.784 113.217 8.979 134.472 8.428 24.896-7.598 28.029-12.708 28.029z"/>
  <path fill="#ceccae" d="M255.395 377.994 0 128l.527 250.325h254.868"/>
  <path fill="#3f894a" d="M.527 377.994v122.748h254.868V127.346L.527 377.994"/>
  <path fill="#fff" d="m253.633 160.444-.706-.713 1.429-1.411.706.713zM5.589 405.425l-.706-.713 2.885-2.85.706.713zm5.768-5.697-.705-.714 2.885-2.849.705.713zm5.769-5.697-.705-.714 2.883-2.849.706.713zm5.769-5.698-.706-.713 2.884-2.849.706.713zm5.768-5.697-.705-.713 2.884-2.85.705.714zm5.768-5.697-.705-.713 2.885-2.85.705.714zm5.769-5.697-.706-.713 2.884-2.85.706.714zm5.768-5.699-.705-.713 2.884-2.848.705.713zm5.769-5.697-.705-.714 2.883-2.847.706.713zm5.768-5.697-.706-.714 2.885-2.847.706.713zm5.768-5.697-.705-.714 2.885-2.847.705.713zm5.769-5.698-.705-.713 2.884-2.848.705.714zm5.769-5.697-.706-.713 2.884-2.848.706.714zm5.768-5.697-.706-.713 2.885-2.848.705.714zm5.768-5.697-.705-.713 2.885-2.848.705.713zm5.769-5.697-.706-.714 2.884-2.849.706.713zm5.769-5.697-.706-.714 2.884-2.849.705.713zm5.768-5.697-.705-.714 2.884-2.849.705.713zm5.768-5.698-.706-.713 2.885-2.849.706.713zm5.769-5.697-.706-.713 2.884-2.85.706.714zm5.768-5.697-.705-.713 2.884-2.85.705.714zm5.769-5.697-.706-.713 2.884-2.85.706.714zm5.769-5.697-.706-.713 2.883-2.85.705.713zm5.767-5.697-.705-.714 2.885-2.849.705.713zm5.768-5.699-.705-.714 2.884-2.847.706.713zm5.77-5.697-.706-.714 2.885-2.847.706.713zm5.767-5.698-.705-.713 2.885-2.848.705.714zm5.77-5.696-.705-.713 2.882-2.849.706.714zm5.768-5.697-.706-.713 2.885-2.85.706.714zm5.767-5.698-.705-.713 2.885-2.849.705.713zm5.77-5.697-.706-.714 2.883-2.848.706.713zm5.768-5.697-.706-.714 2.885-2.848.706.713zm5.769-5.697-.705-.714 2.883-2.848.705.713zm5.768-5.698-.705-.713 2.884-2.849.706.714zm5.768-5.697-.706-.713 2.885-2.849.706.714zm5.77-5.697-.706-.713 2.883-2.849.705.714zm5.767-5.697-.705-.713 2.884-2.849.706.713zm5.768-5.697-.706-.714 2.885-2.848.706.713zm5.769-5.698-.705-.714 2.883-2.848.705.713zm5.768-5.697-.705-.714 2.885-2.848.705.713zm5.77-5.698-.706-.713 2.883-2.848.706.713zm5.767-5.697-.705-.713 2.885-2.849.705.714zm5.768-5.697-.705-.713 2.885-2.849.705.714zM1.279 409.684l-.705-.714L2 407.559l.706.714zM41.372 416.689h12.699c1.66 0 3.341.135 5.043.404 1.702.271 3.227.831 4.576 1.682 1.348.85 2.448 2.035 3.299 3.548.851 1.517 1.276 3.518 1.276 6.008 0 2.24-.664 4.192-1.992 5.852-1.329 1.66-3.3 2.762-5.915 3.301v.125c1.453.124 2.78.465 3.984 1.027a9.926 9.926 0 0 1 3.113 2.242c.871.933 1.545 2.045 2.022 3.329.478 1.289.717 2.699.717 4.233 0 2.532-.488 4.597-1.463 6.195-.975 1.599-2.202 2.853-3.673 3.767a14.065 14.065 0 0 1-4.794 1.868c-1.722.333-3.331.498-4.824.498H41.37v-44.079zm4.108 19.049h8.529c2.117 0 3.839-.259 5.167-.778 1.329-.52 2.366-1.152 3.113-1.899.748-.746 1.246-1.547 1.495-2.396.249-.849.373-1.629.373-2.334 0-1.535-.259-2.811-.778-3.829-.52-1.015-1.215-1.824-2.085-2.428-.873-.6-1.889-1.028-3.051-1.276a17.494 17.494 0 0 0-3.674-.374H45.48zm0 21.293h9.4c2.406 0 4.347-.291 5.82-.873 1.473-.58 2.604-1.306 3.393-2.177.789-.873 1.317-1.797 1.587-2.772.27-.973.406-1.858.406-2.645 0-1.619-.311-3.008-.933-4.17-.622-1.162-1.431-2.107-2.428-2.834a10.08 10.08 0 0 0-3.392-1.587 15.084 15.084 0 0 0-3.829-.498H45.48zm32.771-16.934c0-.54-.022-1.194-.062-1.962a80.288 80.288 0 0 1-.092-2.334 67.012 67.012 0 0 0-.094-2.212 26.798 26.798 0 0 1-.063-1.587h3.735c.042 1.079.072 2.117.092 3.112.02.998.073 1.64.157 1.931.955-1.702 2.179-3.091 3.672-4.17 1.495-1.08 3.32-1.62 5.479-1.62.373 0 .737.032 1.09.095l1.09.216-.436 3.673a4.55 4.55 0 0 0-1.431-.249c-1.619 0-3.018.259-4.202.778-1.182.52-2.157 1.235-2.926 2.148-.769.913-1.339 1.981-1.712 3.207-.373 1.226-.56 2.542-.56 3.953v15.688h-3.735v-20.667zm44.693 12.575c0 .542.02 1.194.062 1.963.042.768.072 1.547.092 2.334.02.79.052 1.527.094 2.211.041.685.063 1.212.063 1.588h-3.735a165.408 165.408 0 0 1-.092-3.113c-.022-.997-.073-1.64-.157-1.93h-.187c-.748 1.577-1.992 2.936-3.734 4.077-1.744 1.14-3.777 1.712-6.101 1.712-2.242 0-4.078-.353-5.511-1.057-1.433-.705-2.553-1.63-3.361-2.77-.809-1.142-1.361-2.46-1.65-3.955a24.028 24.028 0 0 1-.435-4.606v-17.12h3.734v16.933c0 1.164.103 2.296.311 3.394.209 1.098.57 2.085 1.09 2.958.518.871 1.246 1.565 2.179 2.085.934.52 2.148.779 3.643.779 1.369 0 2.667-.239 3.889-.715a8.38 8.38 0 0 0 3.175-2.179c.893-.975 1.597-2.202 2.117-3.673.518-1.473.779-3.207.779-5.199v-14.381h3.735zm9.199-12.575c0-.54-.02-1.194-.058-1.962a80.223 80.223 0 0 1-.095-2.334 80.165 80.165 0 0 0-.094-2.212 27.517 27.517 0 0 1-.062-1.587h3.735c.04 1.079.07 2.117.094 3.112.02.998.07 1.64.152 1.931h.189c.749-1.576 1.991-2.936 3.735-4.078 1.744-1.14 3.779-1.712 6.103-1.712 2.237 0 4.063.353 5.476 1.058 1.413.704 2.525 1.629 3.332 2.771.81 1.14 1.372 2.459 1.681 3.954.309 1.493.466 3.03.466 4.605v17.121h-3.735V443.83a18.32 18.32 0 0 0-.309-3.394c-.209-1.097-.572-2.085-1.09-2.956-.521-.873-1.246-1.567-2.179-2.087-.933-.517-2.147-.778-3.64-.778-1.373 0-2.67.238-3.892.716a8.409 8.409 0 0 0-3.175 2.177c-.893.976-1.599 2.202-2.117 3.675-.521 1.473-.78 3.207-.78 5.198v14.381h-3.735v-20.665zm57.588 16.436c-1.411 1.704-3.01 2.958-4.794 3.767-1.786.809-3.717 1.212-5.79 1.212-2.202 0-4.234-.373-6.103-1.122-1.868-.746-3.466-1.794-4.794-3.142-1.329-1.349-2.366-2.946-3.113-4.795-.746-1.846-1.121-3.869-1.121-6.068 0-2.2.375-4.223 1.121-6.069.747-1.846 1.784-3.446 3.113-4.794 1.328-1.349 2.926-2.397 4.794-3.143 1.869-.749 3.901-1.122 6.103-1.122 2.117 0 4.076.436 5.882 1.307 1.806.872 3.414 2.097 4.825 3.672l-2.989 2.242c-1.077-1.204-2.261-2.148-3.548-2.834a8.754 8.754 0 0 0-4.17-1.027c-1.744 0-3.321.311-4.732.935-1.411.622-2.615 1.463-3.61 2.52-.996 1.058-1.754 2.304-2.274 3.735-.52 1.433-.779 2.958-.779 4.576 0 1.617.259 3.142.779 4.575.52 1.431 1.278 2.677 2.274 3.735.995 1.058 2.199 1.898 3.61 2.52 1.411.625 2.988.936 4.732.936 1.575 0 3.018-.364 4.325-1.09a11.301 11.301 0 0 0 3.391-2.894zm5.308-42.832h3.735v23.346h.124c.747-1.576 1.991-2.936 3.735-4.078 1.742-1.14 3.777-1.712 6.101-1.712 2.239 0 4.066.353 5.476 1.058 1.411.704 2.523 1.629 3.332 2.771.808 1.14 1.37 2.459 1.679 3.954.312 1.493.468 3.03.468 4.605v17.121h-3.735v-16.934a18.32 18.32 0 0 0-.311-3.394c-.208-1.097-.572-2.085-1.089-2.956-.52-.873-1.245-1.567-2.18-2.087-.933-.518-2.147-.778-3.64-.778-1.371 0-2.667.238-3.891.716a8.393 8.393 0 0 0-3.175 2.177c-.891.976-1.598 2.202-2.117 3.675-.52 1.473-.779 3.207-.779 5.198v14.381h-3.735v-47.063z"/>
</svg>

<?xml version="1.0" encoding="UTF-8" standalone="no"?>
<svg width="256px" height="501px" viewBox="0 0 256 501" version="1.1" xmlns="http://www.w3.org/2000/svg" xmlns:xlink="http://www.w3.org/1999/xlink" preserveAspectRatio="xMidYMid">
	<g>
		<path d="M256,128 L128.959,262.006 L0,128 L128,0 L256,128" fill="#86AD8A"></path>
		<path d="M106.088,329.432 C113.69,306.974 117.718,237.826 115.576,203.413 C115.32,199.285 114.908,194.493 114.188,190.668 C113.963,189.449 113.698,188.324 113.403,187.354 L113.403,52.856 C113.403,41.383 123.923,35.961 133.805,61.141 C143.688,86.32 140.818,175.881 140.818,182.249 C140.818,183.6 139.592,185.197 137.668,186.764 C136.899,187.26 136.203,187.766 135.559,188.277 C129.64,193.026 128.777,198.502 128.468,203.413 C126.327,237.826 125.35,306.974 132.952,329.432 C141.858,355.746 124.916,359.051 119.524,359.051 C114.123,359.049 97.182,355.744 106.088,329.432 Z M76.825,88.162 C75.877,88.261 74.693,107.001 74.302,120.535 C73.824,136.979 73.084,151.605 68.466,151.605 C64.998,151.605 62.847,145.879 63.415,131.348 C64.232,110.422 64.207,88.162 62.975,88.162 C61.422,88.162 54.229,134.318 54.229,150.555 C54.229,162.201 59.22,173.17 65.474,178.882 L65.54,178.936 L66.098,179.431 L66.118,179.448 C70.637,183.568 71.775,188.043 72.08,192.131 C74.661,226.534 69.817,311.766 60.686,334.223 C49.989,360.528 70.34,363.842 76.825,363.842 C83.3,363.842 103.652,360.528 92.953,334.223 C83.822,311.764 78.986,226.534 81.559,192.131 C81.866,188.043 83.001,183.568 87.521,179.448 L87.541,179.431 L88.099,178.936 L88.165,178.882 C94.418,173.172 99.732,162.197 99.411,150.555 C98.137,104.364 92.863,88.162 91.31,88.162 C90.078,88.162 90.08,112.818 90.431,130.354 C90.718,144.719 89.486,151.191 85.434,151.191 C81.575,151.191 80.409,137.2 79.919,120.35 C79.526,106.78 78.305,88.162 76.828,88.162 L76.825,88.162 Z M179.285,353.422 C174.176,353.422 158.15,350.287 166.578,325.393 C173.773,304.14 177.582,223.487 175.557,190.921 C175.454,189.263 175.043,187.581 174.728,185.803 C173.839,180.778 167.618,176.662 164.016,173.048 C157.02,166.028 152.526,154.224 152.526,140.912 C152.526,119.299 164.507,91.945 179.285,91.945 C194.064,91.945 206.045,119.299 206.045,140.912 C206.045,154.224 201.549,166.028 194.555,173.048 C190.953,176.662 184.732,180.778 183.843,185.803 C183.528,187.581 183.119,189.263 183.014,190.921 C180.987,223.485 184.798,304.138 191.993,325.393 C200.421,350.289 184.395,353.422 179.285,353.422 Z" fill="#FFFFFF"></path>
		<path d="M255.395,377.994 L0,128 L0.527,378.325 L255.395,378.325" fill="#CECCAE"></path>
		<path d="M0.527,377.994 L0.527,500.742 L255.395,500.742 L255.395,127.346 L0.527,377.994" fill="#3F894A"></path>
		<path d="M253.633,160.444 L252.927,159.731 L254.356,158.32 L255.062,159.033 L253.633,160.444 Z M5.589,405.425 L4.883,404.712 L7.768,401.862 L8.474,402.575 L5.589,405.425 Z M11.357,399.728 L10.652,399.014 L13.537,396.165 L14.242,396.878 L11.357,399.728 L11.357,399.728 Z M17.126,394.031 L16.421,393.317 L19.304,390.468 L20.01,391.181 L17.126,394.031 L17.126,394.031 Z M22.895,388.333 L22.189,387.62 L25.073,384.771 L25.779,385.484 L22.895,388.333 L22.895,388.333 Z M28.663,382.636 L27.958,381.923 L30.842,379.073 L31.547,379.787 L28.663,382.636 L28.663,382.636 Z M34.431,376.939 L33.726,376.226 L36.611,373.376 L37.316,374.09 L34.431,376.939 L34.431,376.939 Z M40.2,371.242 L39.494,370.529 L42.378,367.679 L43.084,368.393 L40.2,371.242 L40.2,371.242 Z M45.968,365.543 L45.263,364.83 L48.147,361.982 L48.852,362.695 L45.968,365.543 L45.968,365.543 Z M51.737,359.846 L51.032,359.132 L53.915,356.285 L54.621,356.998 L51.737,359.846 L51.737,359.846 Z M57.505,354.149 L56.799,353.435 L59.684,350.588 L60.39,351.301 L57.505,354.149 L57.505,354.149 Z M63.273,348.452 L62.568,347.738 L65.453,344.891 L66.158,345.604 L63.273,348.452 L63.273,348.452 Z M69.042,342.754 L68.337,342.041 L71.221,339.193 L71.926,339.907 L69.042,342.754 L69.042,342.754 Z M74.811,337.057 L74.105,336.344 L76.989,333.496 L77.695,334.21 L74.811,337.057 L74.811,337.057 Z M80.579,331.36 L79.873,330.647 L82.758,327.799 L83.463,328.513 L80.579,331.36 L80.579,331.36 Z M86.347,325.663 L85.642,324.95 L88.527,322.102 L89.232,322.815 L86.347,325.663 L86.347,325.663 Z M92.116,319.966 L91.41,319.252 L94.294,316.403 L95,317.116 L92.116,319.966 L92.116,319.966 Z M97.885,314.269 L97.179,313.555 L100.063,310.706 L100.768,311.419 L97.885,314.269 L97.885,314.269 Z M103.653,308.572 L102.948,307.858 L105.832,305.009 L106.537,305.722 L103.653,308.572 L103.653,308.572 Z M109.421,302.874 L108.715,302.161 L111.6,299.312 L112.306,300.025 L109.421,302.874 L109.421,302.874 Z M115.19,297.177 L114.484,296.464 L117.368,293.614 L118.074,294.328 L115.19,297.177 L115.19,297.177 Z M120.958,291.48 L120.253,290.767 L123.137,287.917 L123.842,288.631 L120.958,291.48 L120.958,291.48 Z M126.727,285.783 L126.021,285.07 L128.905,282.22 L129.611,282.934 L126.727,285.783 L126.727,285.783 Z M132.496,280.086 L131.79,279.373 L134.673,276.523 L135.378,277.236 L132.496,280.086 L132.496,280.086 Z M138.263,274.389 L137.558,273.675 L140.443,270.826 L141.148,271.539 L138.263,274.389 L138.263,274.389 Z M144.031,268.69 L143.326,267.976 L146.21,265.129 L146.916,265.842 L144.031,268.69 L144.031,268.69 Z M149.801,262.993 L149.095,262.279 L151.98,259.432 L152.686,260.145 L149.801,262.993 L149.801,262.993 Z M155.568,257.295 L154.863,256.582 L157.748,253.734 L158.453,254.448 L155.568,257.295 L155.568,257.295 Z M161.338,251.599 L160.633,250.886 L163.515,248.037 L164.221,248.751 L161.338,251.599 L161.338,251.599 Z M167.106,245.902 L166.4,245.189 L169.285,242.339 L169.991,243.053 L167.106,245.902 L167.106,245.902 Z M172.873,240.204 L172.168,239.491 L175.053,236.642 L175.758,237.355 L172.873,240.204 L172.873,240.204 Z M178.643,234.507 L177.937,233.793 L180.82,230.945 L181.526,231.658 L178.643,234.507 L178.643,234.507 Z M184.411,228.81 L183.705,228.096 L186.59,225.248 L187.296,225.961 L184.411,228.81 L184.411,228.81 Z M190.18,223.113 L189.475,222.399 L192.358,219.551 L193.063,220.264 L190.18,223.113 L190.18,223.113 Z M195.948,217.415 L195.243,216.702 L198.127,213.853 L198.833,214.567 L195.948,217.415 L195.948,217.415 Z M201.716,211.718 L201.01,211.005 L203.895,208.156 L204.601,208.87 L201.716,211.718 L201.716,211.718 Z M207.486,206.021 L206.78,205.308 L209.663,202.459 L210.368,203.173 L207.486,206.021 L207.486,206.021 Z M213.253,200.324 L212.548,199.611 L215.432,196.762 L216.138,197.475 L213.253,200.324 L213.253,200.324 Z M219.021,194.627 L218.315,193.913 L221.2,191.065 L221.906,191.778 L219.021,194.627 L219.021,194.627 Z M224.79,188.929 L224.085,188.215 L226.968,185.367 L227.673,186.08 L224.79,188.929 L224.79,188.929 Z M230.558,183.232 L229.853,182.518 L232.738,179.67 L233.443,180.383 L230.558,183.232 L230.558,183.232 Z M236.328,177.534 L235.622,176.821 L238.505,173.973 L239.211,174.686 L236.328,177.534 L236.328,177.534 Z M242.095,171.837 L241.39,171.124 L244.275,168.275 L244.98,168.989 L242.095,171.837 L242.095,171.837 Z M247.863,166.14 L247.158,165.427 L250.043,162.578 L250.748,163.292 L247.863,166.14 Z M1.279,409.684 L0.574,408.97 L2,407.559 L2.706,408.273 L1.279,409.684 Z" fill="#FFFFFF"></path>
		<path d="M41.372,416.689 L54.071,416.689 C55.731,416.689 57.412,416.824 59.114,417.093 C60.816,417.364 62.341,417.924 63.69,418.775 C65.038,419.625 66.138,420.81 66.989,422.323 C67.84,423.84 68.265,425.841 68.265,428.331 C68.265,430.571 67.601,432.523 66.273,434.183 C64.944,435.843 62.973,436.945 60.358,437.484 L60.358,437.609 C61.811,437.733 63.138,438.074 64.342,438.636 C65.546,439.196 66.584,439.943 67.455,440.878 C68.326,441.811 69,442.923 69.477,444.207 C69.955,445.496 70.194,446.906 70.194,448.44 C70.194,450.972 69.706,453.037 68.731,454.635 C67.756,456.234 66.529,457.488 65.058,458.402 C63.585,459.315 61.986,459.939 60.264,460.27 C58.542,460.603 56.933,460.768 55.44,460.768 L41.37,460.768 L41.37,416.689 L41.372,416.689 L41.372,416.689 Z M45.48,435.738 L54.009,435.738 C56.126,435.738 57.848,435.479 59.176,434.96 C60.505,434.44 61.542,433.808 62.289,433.061 C63.037,432.315 63.535,431.514 63.784,430.665 C64.033,429.816 64.157,429.036 64.157,428.331 C64.157,426.796 63.898,425.52 63.379,424.502 C62.859,423.487 62.164,422.678 61.294,422.074 C60.421,421.474 59.405,421.046 58.243,420.798 C57.081,420.549 55.857,420.424 54.569,420.424 L45.48,420.424 L45.48,435.738 L45.48,435.738 Z M45.48,457.031 L54.88,457.031 C57.286,457.031 59.227,456.74 60.7,456.158 C62.173,455.578 63.304,454.852 64.093,453.981 C64.882,453.108 65.41,452.184 65.68,451.209 C65.95,450.236 66.086,449.351 66.086,448.564 C66.086,446.945 65.775,445.556 65.153,444.394 C64.531,443.232 63.722,442.287 62.725,441.56 C61.729,440.836 60.597,440.306 59.333,439.973 C58.067,439.642 56.79,439.475 55.504,439.475 L45.48,439.475 L45.48,457.031 L45.48,457.031 Z M78.251,440.097 C78.251,439.557 78.229,438.903 78.189,438.135 C78.147,437.366 78.117,436.587 78.097,435.801 C78.075,435.012 78.045,434.275 78.003,433.589 C77.96,432.905 77.94,432.377 77.94,432.002 L81.675,432.002 C81.717,433.081 81.747,434.119 81.767,435.114 C81.787,436.112 81.84,436.754 81.924,437.045 C82.879,435.343 84.103,433.954 85.596,432.875 C87.091,431.795 88.916,431.255 91.075,431.255 C91.448,431.255 91.812,431.287 92.165,431.35 L93.255,431.566 L92.819,435.239 C92.321,435.074 91.844,434.99 91.388,434.99 C89.769,434.99 88.37,435.249 87.186,435.768 C86.004,436.288 85.029,437.003 84.26,437.916 C83.491,438.829 82.921,439.897 82.548,441.123 C82.175,442.349 81.988,443.665 81.988,445.076 L81.988,460.764 L78.253,460.764 L78.253,440.097 L78.251,440.097 L78.251,440.097 Z M122.944,452.672 C122.944,453.214 122.964,453.866 123.006,454.635 C123.048,455.403 123.078,456.182 123.098,456.969 C123.118,457.759 123.15,458.496 123.192,459.18 C123.233,459.865 123.255,460.392 123.255,460.768 L119.52,460.768 C119.478,459.69 119.448,458.65 119.428,457.655 C119.406,456.658 119.355,456.015 119.271,455.725 L119.084,455.725 C118.336,457.302 117.092,458.661 115.35,459.802 C113.606,460.942 111.573,461.514 109.249,461.514 C107.007,461.514 105.171,461.161 103.738,460.457 C102.305,459.752 101.185,458.827 100.377,457.687 C99.568,456.545 99.016,455.227 98.727,453.732 C98.436,452.239 98.292,450.703 98.292,449.126 L98.292,432.006 L102.026,432.006 L102.026,448.939 C102.026,450.103 102.129,451.235 102.337,452.333 C102.546,453.431 102.907,454.418 103.427,455.291 C103.945,456.162 104.673,456.856 105.606,457.376 C106.54,457.896 107.754,458.155 109.249,458.155 C110.618,458.155 111.916,457.916 113.138,457.44 C114.362,456.963 115.42,456.236 116.313,455.261 C117.206,454.286 117.91,453.059 118.43,451.588 C118.948,450.115 119.209,448.381 119.209,446.389 L119.209,432.008 L122.944,432.008 L122.944,452.672 L122.944,452.672 Z M132.143,440.097 C132.143,439.557 132.123,438.903 132.085,438.135 C132.043,437.366 132.01,436.587 131.99,435.801 C131.966,435.012 131.936,434.275 131.896,433.589 C131.854,432.905 131.834,432.377 131.834,432.002 L135.569,432.002 C135.609,433.081 135.639,434.119 135.663,435.114 C135.683,436.112 135.733,436.754 135.815,437.045 L136.004,437.045 C136.753,435.469 137.995,434.109 139.739,432.967 C141.483,431.827 143.518,431.255 145.842,431.255 C148.079,431.255 149.905,431.608 151.318,432.313 C152.731,433.017 153.843,433.942 154.65,435.084 C155.46,436.224 156.022,437.543 156.331,439.038 C156.64,440.531 156.797,442.068 156.797,443.643 L156.797,460.764 L153.062,460.764 L153.062,443.83 C153.062,442.668 152.96,441.536 152.753,440.436 C152.544,439.339 152.181,438.351 151.663,437.48 C151.142,436.607 150.417,435.913 149.484,435.393 C148.551,434.876 147.337,434.615 145.844,434.615 C144.471,434.615 143.174,434.853 141.952,435.331 C140.73,435.807 139.671,436.535 138.777,437.508 C137.884,438.484 137.178,439.71 136.66,441.183 C136.139,442.656 135.88,444.39 135.88,446.381 L135.88,460.762 L132.145,460.762 L132.145,440.097 L132.143,440.097 L132.143,440.097 Z M189.731,456.533 C188.32,458.237 186.721,459.491 184.937,460.3 C183.151,461.109 181.22,461.512 179.147,461.512 C176.945,461.512 174.913,461.139 173.044,460.39 C171.176,459.644 169.578,458.596 168.25,457.248 C166.921,455.899 165.884,454.302 165.137,452.453 C164.391,450.607 164.016,448.584 164.016,446.385 C164.016,444.185 164.391,442.162 165.137,440.316 C165.884,438.47 166.921,436.87 168.25,435.522 C169.578,434.173 171.176,433.125 173.044,432.379 C174.913,431.63 176.945,431.257 179.147,431.257 C181.264,431.257 183.223,431.693 185.029,432.564 C186.835,433.436 188.443,434.661 189.854,436.236 L186.865,438.478 C185.788,437.274 184.604,436.33 183.317,435.644 C182.029,434.96 180.64,434.617 179.147,434.617 C177.403,434.617 175.826,434.928 174.415,435.552 C173.004,436.174 171.8,437.015 170.805,438.072 C169.809,439.13 169.051,440.376 168.531,441.807 C168.011,443.24 167.752,444.765 167.752,446.383 C167.752,448 168.011,449.525 168.531,450.958 C169.051,452.389 169.809,453.635 170.805,454.693 C171.8,455.751 173.004,456.591 174.415,457.213 C175.826,457.838 177.403,458.149 179.147,458.149 C180.722,458.149 182.165,457.785 183.472,457.059 C184.778,456.334 185.91,455.367 186.863,454.165 L189.731,456.533 L189.731,456.533 Z M195.039,413.701 L198.774,413.701 L198.774,437.047 L198.898,437.047 C199.645,435.471 200.889,434.111 202.633,432.969 C204.375,431.829 206.41,431.257 208.734,431.257 C210.973,431.257 212.8,431.61 214.21,432.315 C215.621,433.019 216.733,433.944 217.542,435.086 C218.35,436.226 218.912,437.545 219.221,439.04 C219.533,440.533 219.689,442.07 219.689,443.645 L219.689,460.766 L215.954,460.766 L215.954,443.832 C215.954,442.67 215.85,441.538 215.643,440.438 C215.435,439.341 215.071,438.353 214.554,437.482 C214.034,436.609 213.309,435.915 212.374,435.395 C211.441,434.877 210.227,434.617 208.734,434.617 C207.363,434.617 206.067,434.855 204.843,435.333 C203.62,435.809 202.561,436.537 201.668,437.51 C200.777,438.486 200.07,439.712 199.551,441.185 C199.031,442.658 198.772,444.392 198.772,446.383 L198.772,460.764 L195.037,460.764 L195.037,413.701 L195.039,413.701 L195.039,413.701 Z" fill="#FFFFFF"></path>
	</g>
</svg>
